X: 32219
T: Phillips's
R: hornpipe
M: 4/4
K: Dmajor
|:Ac|d2 fd cdBc|ABGA FGEF|DFAc BGBd|ceae dcBA|
d2 fd cdBc|ABGA FGEF|DFAc BGBd|ceAc d2:|
|:de|fefg fdef|gfga gece|fefg fagf|edcB A2 de|
fdAd fagf|gece gbag|fagf egfe|d2 f2 d2:|

